image/box-icons-item3.svg

<svg fill="none" height="50" viewBox="0 0 43 50" width="43" xmlns="http://www.w3.org/2000/svg"><path d="m5.33065.752766c.09183.013827.24678.135508.31565.210175l15.062 24.078859.4878.4922 15.4264-24.573825c.0603-.069136.2497-.210175.3157-.210175h3.9972l.1894.2959-17.9947 28.1551v19.3692l-.1865.1798h-3.9972l-.1865-.1798v-19.3692l-17.871228-28.15233.189388-.29867h4.24685z" fill="#fa4549"/><path d="m5.41016.375.05468.026367c.10679.032864.19781.091539.24805.126953.07696.054273.15392.12096.20899.180664l.02343.025391.01856.029297 15.04003 24.042928.126.127 15.1748-24.172858.0156-.024414.0195-.022461c.0594-.06813.1507-.140961.2247-.192383.0398-.027734.0868-.057529.1347-.082031.0293-.014957.1247-.064453.2393-.064453h4.2021l.1104.172852.1894.295898.1299.20215-.1299.20215-17.9355 28.06345v19.418l-.1143.1103-.1865.1797-.1094.1055h-4.2998l-.1084-.1055-.1865-.1797-.1152-.1103v-19.4199l-17.812534-28.0596-.12793-.20117.12793-.201174.189453-.298828.110351-.173828z" stroke="#fa4549" stroke-width=".75"/></svg>

<svg width="43" height="50" viewBox="0 0 43 50" fill="none" xmlns="http://www.w3.org/2000/svg">
<path d="M5.33065 0.752766C5.42248 0.766593 5.57743 0.888274 5.6463 0.962941L20.7083 25.0418L21.1961 25.534L36.6225 0.960175C36.6828 0.891039 36.8722 0.75 36.9382 0.75H40.9354L41.1248 1.0459L23.1301 29.201V48.5702L22.9436 48.75H18.9464L18.7599 48.5702V29.201L0.888672 1.04867L1.07806 0.75H5.32491L5.33065 0.752766Z" fill="#FA4549"/>
<path d="M5.41016 0.375L5.46484 0.401367C5.57163 0.434231 5.66265 0.492906 5.71289 0.52832C5.78985 0.582593 5.86681 0.64928 5.92188 0.708984L5.94531 0.734375L5.96387 0.763672L21.0039 24.8066L21.1299 24.9336L36.3047 0.760742L36.3203 0.736328L36.3398 0.713867C36.3992 0.645737 36.4905 0.572906 36.5645 0.521484C36.6043 0.49375 36.6513 0.463955 36.6992 0.439453C36.7285 0.424496 36.8239 0.375 36.9385 0.375H41.1406L41.251 0.547852L41.4404 0.84375L41.5703 1.0459L41.4404 1.24805L23.5049 29.3115V48.7295L23.3906 48.8398L23.2041 49.0195L23.0947 49.125H18.7949L18.6865 49.0195L18.5 48.8398L18.3848 48.7295V29.3096L0.572266 1.25L0.444336 1.04883L0.572266 0.847656L0.761719 0.548828L0.87207 0.375H5.41016Z" stroke="#FA4549" stroke-width="0.75"/>
</svg>
